X:1
T:Vendome -- Hornpipe
R:hornpipe
B:Cole's 1000 Fiddle Tunes
M:C|
L:1/8
K:F
(uAB)|c>fe>f d>ba>g|((3fga) f>c ((3ABc) A>F|\
E>FG>A B>cd>c|((3BAG) ((3AGF) E>dc>B|
A>fe>f d>ba>g|((3fga) f>c ((3ABc) A>F|\
E>dc>B ((3AGF) ((3GFE)|(3FAc (3fcA F2:|
|:uA2|(3BAG (3AGF ((3EGB) ((3dcB)|((3c=Bc) ((3Acf) (3agf (3edc|\
(3BAG (3AGF ((3EGB) ((3dcB)|((3c=Bc) ((3Acf) (3agf (3edc|
((3d^cd) ((3g^fg) (3bag (3fed|((3c=Bc) ((3fef) (3agf (3edc|\
(3dfe (3dcB (3AGF (3GFE|(3FAc (3fcA F2:|
